X: 12982
T: Fiery Clockface, The
R: jig
M: 6/8
K: Dmajor
c|d>dD>E F>GA>B|=c>=cE>F G>A B>c|d>dD>E F>GA>B|(3Bcd e>c d2d:|
|:e|f>f (3def g>fe>d|c>BA>B c>de>g|f>f (3def g>fe>d|(3cBA B>c d2d:|
c|d>dD>E F>GA>B|=c>=cE>F G>A B>c|d>dD>E F>GA>B|(3Bcd e>c d2d:|
e|f>f (3def g>fe>d|c>BA>B c>de>g|f>f (3def g>fe>d|(3cBA B>c d2de|
f>f (3def g>fe>d|c>BA>B c>de>g|f>f (3def g>fg>b|a>a (3ABc d2d||

